X:1
T:Title
%%score { ( 1 3 5 ) | ( 2 4 ) }
L:1/8
M:9/8
K:G
V:1 treble nm="Grand Piano"
V:3 treble 
V:5 treble 
V:2 bass 
V:4 bass 
V:1
 z3 z3[Q:1/4=107] [B,D]2 [B,G] | [DB]3- [DB][CA][B,G] FGA | [B,D]3 [B,G]3 D2 G | B3- B_B=B dcB | %4
 [FA]6 D2 D | d3- dcB AG[DF] | [DF]3 [CE]3 [DE]2 [DE] | [^CA]3- [CA][CB][CA] [EG][DF][CE] | %8
[M:3/4] D6 |[M:3/8] D^CD |[M:9/8] c6[K:bass][K:treble] z3 | G6 z3 | E3- E^DE [^CA][A,CE][CGB] | %13
 [DFA]6 B2 c | d6 z3 | [Ec]6 z3 | [Gd]3- [Gd][Ac][GB] [FA][DE][CF] |[M:3/4] [B,G]6 |] %18
V:2
 z3 z3 [G,,G,]2 [G,,G,] | [G,,G,]3- [G,,G,][G,,G,][G,,G,] [D,A,C][D,G,B,][D,F,C] | %2
 [G,,G,]3 [G,,D,]3 [G,B,]2[K:treble] [G,B,D] | [G,DG]3- [G,DG][G,^CG][G,DG] [B,DG][A,DF][G,DG] | %4
 [D,D]6 [D,C]2 [D,C] | [G,B,D]3- [G,B,D][K:treble][G,EG][G,DG] [G,CF][K:bass][G,B,D][B,,G,] | %6
 [C,G,]3 [C,G,]3 [B,,^G,]2 [B,,G,] | [A,,A,]3- [A,,A,][A,,A,][A,,A,] [A,,A,][A,,A,][A,,G,] | %8
[M:3/4] [D,F,A,]6 |[M:3/8] B,A,B, |[M:9/8] D6 .B,3 | [G,,D,]2 [G,,E,] [G,,D,]3 [G,,G,]2 [B,,G,] | %12
 [C,G,C]3- [C,G,C][C,F,C][C,G,C] [A,,G,]A,,A,, | D,6[K:treble] G2 A | G2- [G,G-] G2 =F F2 F | %15
 C,2 C, C,3 [C,C]2 [C,C] | [D,B,]3- [D,B,][D,D][D,D] [D,C][D,C][D,A,] |[M:3/4] [G,,D,G,]6 |] %18
V:3
 x9 | x9 | x9 | x9 | x9 | x9 | x9 | x9 |[M:3/4] x6 |[M:3/8] x3 | %10
[M:9/8] z2[K:bass] F, F,3[K:treble] DB>A | B,2 C B,3 [B,G]2 [DF] | x9 | x9 | z2 B, z2 G GAB | %15
 C2 G, G,3 [Ge]2 [Ge] | x9 |[M:3/4] x6 |] %18
V:4
 x9 | x9 | x8[K:treble] x | x9 | x9 | x4[K:treble] x3[K:bass] x2 | x9 | x9 |[M:3/4] x6 | %9
[M:3/8] x3 |[M:9/8] [D,F,]2 D, D,3 [D,F,]-[D,-F,-D]>[D,F,C] | x9 | x9 | x6[K:treble] x3 | %14
 .[G,B,]3 G,3 [G,B,]3 | x9 | x9 |[M:3/4] x6 |] %18
V:5
 x9 | x9 | x9 | x9 | x9 | x9 | x9 | x9 |[M:3/4] x6 |[M:3/8] x3 | %10
[M:9/8] x2[K:bass] x4[K:treble] x3 | x9 | x9 | x9 | z3 B,3 z3 | x9 | x9 |[M:3/4] x6 |] %18

